X:171
T:Kerfunten Jig, The
R:jig
C:Hammy Hamilton
Z:id:hn-jig-171
M:6/8
K:G
~B3 BAG|dBd efg|dBd edB|~A3 DFA|~B3 BAG|dBd efg|dBd edB|1 ~A3 G2A:|2 AGF GBd||
~g3 gab|~e3 edB|~g3 gab|bag ~a3|~g3 gab|~e3 efg|dBd edB|1 AGF GBd:|2 AGF G2c||

